!!!COM: Buxtehude, Dietrich
!!!CDT: ~1637///-1707/05/09/
!!!ODT: ~1694///
!!!OTL: Sonata in F Major, Op. 1, No. 1
!!!OPS: Op. 1
!!!ONM: No. 1
!!!SCA: BuxWV 252
!!!OMD: 6. Presto
!!!URL: http://www.lysator.liu.se/~tuben/scores
!!!ONB: Johan Tufvessons, ed.
!!!SMA: facsmile of the original edition at Uppsala University
**kern	**kern	**kern
*staff3	*staff2	*staff1
*Icemba	*Iviola	*Ivioln
*clefF4	*clefC3	*clefG2
*k[b-]	*k[b-]	*k[b-]
*met(C)	*met(C)	*met(C)
*M4/4	*M4/4	*M4/4
*MM152	*MM152	*MM152
=137-	=137-	=137-
8r	8r	8r
8F\L	8a\L	8dd\L
8E\	8g\	8.cc\
8D\J	8f\J	.
.	.	16bn\Jk
8E\L	8g\L	4cc\
8C\	8e\	.
8D\	8f\	8r
8E\J	8g\J	16cc\LL
.	.	16b-\JJ
=138	=138	=138
8r	8c\L	8a\L
8F\L	8a\	8dd\
8E\	8g\	8.cc\
8D\J	8f\J	.
.	.	16bn\Jk
8E\L	8g\L	4cc\
8C\	8e\	.
8D\	8f\	8r
8E\J	8g\J	16cc\LL
.	.	16b-\JJ
=139	=139	=139
8r	8c\L	8a\L
8F\L	8a\	8dd\
8E\	8g\	8.cc\
8D\J	8f\J	.
.	.	16bn\Jk
8E/L	8g\L	8.cc\L
8C/	8e\J	.
.	.	16b-\k
8F/	8r	8a\
8AA/J	8c\	8cc\J
=140	=140	=140
8BB-/L	8d\L	8cc\L
8GG/J	16g\L	8b-\J
.	16f\J	.
4C/	8.e\	8b-/L
.	.	16a/L
.	16e\Jk	16g/JJ
8FF\L	4f\	4a/
8F\	.	.
8A\	8r	8r
8F\J	8f\	8a/
=141	=141	=141
4c\	4e\	8g\L
.	.	16cc\L
.	.	16dd\JJ
8r	4r	8cc/L
8E\	.	8g/J
4F\	2r	8r
.	.	16a/LL
.	.	16b-/JJ
8r	.	8a/L
8C/	.	8e/J
=142	=142	=142
4D\	1r	8r
.	.	16f/LL
.	.	16e/JJ
8r	.	16f/LL
.	.	16a/
8BBn/	.	16g/
.	.	16f/JJ
4C/	.	16e/LL
.	.	16cc/
.	.	16cc/
.	.	16cc/JJ
8D\L	.	16b-\LL
.	.	16cc\
8E\J	.	16b-\
.	.	16cc\JJ
=143	=143	=143
8F\L	8r	16a/LL
.	.	16f/
8D\	16f\LL	16a/
.	16g\JJ	16b-/JJ
8AA\	8f\L	16cc\LL
.	.	16cc\
8A\J	8c\J	16cc\
.	.	16cc\JJ
4B-\	8r	16f/LL
.	.	16e/
.	16d\LL	16f/
.	16e-\JJ	16g/JJ
8r	8d/L	16f/LL
.	.	16g/
8F\	8A/J	16a/
.	.	16a/JJ
=144	=144	=144
4G\	8r	8d/L
.	16B-/LL	16dd/L
.	16A/JJ	16cc/JJ
8D\L	16B-/LL	16dd\LL
.	16d/	16ff\
8E-\J	16c/	16ee-\
.	16B-/JJ	16dd\JJ
8F/L	16A\LL	16cc/LL
.	16f\	16a/
8FF/J	16f\	16a/
.	16f\JJ	16a/JJ
8r	16f\LL	16a/LL
.	16g\	16b-/
8F\	16f\	16a/
.	16g\JJ	16b-/JJ
=145	=145	=145
4c\	16e\LL	16g\LL
.	16c\	16cc\
.	16e\	16cc\
.	16f\JJ	16cc\JJ
8r	16g\LL	16b-\LL
.	16g\	16cc\
8E\	16g\	16b-\
.	16g\JJ	16cc\JJ
4F\	16c\LL	16a/LL
.	16f\	16f/
.	16f\	16a/
.	16f\JJ	16b-/JJ
8r	16e-\LL	16cc\LL
.	16f\	16cc\
8AA/	16e-\	16cc\
.	16f\JJ	16cc\JJ
=146	=146	=146
4BB-/	16d\LL	16f\LL
.	16b-\	16dd\
.	16b-\	16dd\
.	16b-\JJ	16dd\JJ
8r	16a\LL	16cc\LL
.	16b-\	16dd\
8FF/	16a\	16cc\
.	16b-\JJ	16dd\JJ
8GG/L	16d\LL	16b-\LL
.	16e\J	16cc\
8AA/	8f\J	16a\
.	.	16b-\JJ
8BB-/	8.f\L	8.g/L
8C/J	.	.
.	16e\Jk	16g/Jk
=147	=147	=147
4FF/	16f\LL	8a\L
.	16c\	.
.	16d\	16ff\L
.	16e\JJ	16gg\JJ
8r	16f\LL	8ff\L
.	16f\	.
8f\	16f\	8cc\J
.	16f\JJ	.
4B-\	16B-/LL	8r
.	16A/	.
.	16B-/	16dd\LL
.	16c/JJ	16ee-\JJ
8r	16B-\LL	8dd\L
.	16c\	.
8d\	16d\	8a\J
.	16d\JJ	.
=148	=148	=148
4G\	16G/LL	8r
.	16F/	.
.	16G/	16b-/LL
.	16A/JJ	16a/JJ
8r	16G/LL	16b-\LL
.	16B-/	16dd\
8C/	16A/	16cc\
.	16G/JJ	16b-\JJ
4F\	8F/	16a\LL
.	.	16ff\
*	*clefF4	*
.	16F\LL	16ff\
.	16E\JJ	16ff\JJ
8r	16D\LL	16ff\LL
.	16E\	16gg\
8D\	16D\	16ff\
.	16E\JJ	16gg\JJ
=149	=149	=149
4C/	8C/	16ee\LL
.	.	16cc\
*	*clefC3	*
.	16c\LL	16ee\
.	16d\JJ	16ff\JJ
8c\L	8c/L	16ee\LL
.	.	16ff\
8G\J	8G/J	16gg\
.	.	16gg\JJ
4A\	8r	16cc\LL
.	.	16bn\
.	16A/LL	16cc\
.	16B-/JJ	16dd\JJ
8r	8A/L	16cc\LL
.	.	16dd\
8E\	8E/J	16ee\
.	.	16ee\JJ
=150	=150	=150
8F/L	8r	16a/LL
.	.	16g/
8FF/J	16F/LL	16a/
.	16E/JJ	16b-/JJ
4r	16F/LL	16a/LL
.	16A/	16cc/
.	16G/	16b-/
.	16F/JJ	16a/JJ
8r	16E/LL	16g\LL
.	16c/	16e\
16C/LL	16c/	16ee\
16D/JJ	16c/JJ	16ff\JJ
8.E\L	16B-/LL	16gg\LL
.	16c/	16gg\
.	16B-/	16gg\
16E\Jk	16c/JJ	16gg\JJ
=151	=151	=151
8F/L	16A/LL	16cc\LL
.	16F/	16ff\
16FF/L	16A/	16ff\
16GG/JJ	16B-/JJ	16ff\JJ
8.AA/L	16c\LL	16ee-\LL
.	16c\	16ff\
.	16c\	16ee-\
16AA/Jk	16c\JJ	16ff\JJ
4BB-/	16F/LL	[4dd\
.	16B-/	.
.	16A/	.
.	16B-/JJ	.
8r	[4G/	16dd\LL]
.	.	16gg\
8BBn/	.	16ff\
.	.	16gg\JJ
=152	=152	=152
4C/	16G/LL]	[4ee\
.	16c/	.
.	16B-/	.
.	16c/JJ	.
8r	[4A/	16ee\LL]
.	.	16aa\
8C#/	.	16gg\
.	.	16aa\JJ
4D\	16A\LL]	[4ff\
.	16d\	.
.	16c\	.
.	16d\JJ	.
8r	[4B-/	16ff\LL]
.	.	16bb-\
8D\	.	16aa\
.	.	16bb-\JJ
=153	=153	=153
4E\	16B-/LL]	4gg\
.	16A/	.
.	16G/	.
.	16B-/JJ	.
[4F\	8A\L	16r
.	.	16cc\LL
.	16f\L	16dd\
.	16e\JJ	16cc\JJ
8F\L]	8d\L	8bn\L
8E\J	16g\L	8cc\
.	16a\JJ	.
4D\	16f\LL	8.cc\
.	16g\	.
.	16f\	.
.	16g\JJ	16bn\Jk
=154	=154	=154
8C\L	4e\	16cc\LL
.	.	16gg\
8c\	.	16gg\
.	.	16gg\JJ
8A\	4r	16ff\LL
.	.	16gg\
8Bn\J	.	16ff\
.	.	16gg\JJ
4c\	16r	16ee\LL
.	16c\LL	16cc\
.	16c\	16ee\
.	16c\JJ	16ff\JJ
8r	16B-/LL	16gg\LL
.	16c/	16gg\
8B\	16B-/	16gg\
.	16c/JJ	16gg\JJ
=155	=155	=155
4A\	16A/LL	8cc\L
.	16F/	.
.	16A/	16ccc\L
.	16B-/JJ	16ddd\JJ
8r	16c\LL	8ccc\L
.	16c\	.
8c\	16c\	8gg\J
.	16c\JJ	.
4F\	16F/LL	8r
.	16E/	.
.	16F/	16aa\LL
.	16G/JJ	16bb-\JJ
8r	16F/LL	8aa\L
.	16G/	.
8A\	16A/	8ee\J
.	16A/JJ	.
=156	=156	=156
4D\	8D/L	8r
.	16d/L	16ff\LL
.	16c/JJ	16ee\JJ
8r	16d\LL	16ff\LL
.	16f\	16aa\
8G\	16e\	16gg\
.	16d\JJ	16ff\JJ
4A\	16c\LL	16ee\LL
.	16c\	16ccc\
.	16e\	16ccc\
.	16f\JJ	16ccc\JJ
8r	16g\LL	16bb-\LL
.	16g\	16ccc\
8E\	16g\	16bb-\
.	16g\JJ	16ccc\JJ
=157	=157	=157
8F\L	8c\L	16aa\LL
.	.	16ff\
8D\J	16f\L	16aa\
.	16g\JJ	16bb-\JJ
4AA/	8f\L	16ccc\LL
.	.	16ccc\
.	8c\J	16ccc\
.	.	16ccc\JJ
4BB-/	8r	16ff\LL
.	.	16ee\
.	16d\LL	16ff\
.	16e-\JJ	16gg\JJ
8B-\L	8d/L	16ff\LL
.	.	16gg\
8F\J	8A/J	16aa\
.	.	16aa\JJ
=158	=158	=158
4G\	8r	4dd\
.	16B-/LL	.
.	16A/JJ	.
8r	16B-/LL	8r
.	16d/	.
8E\	16c/	16gg\LL
.	16B-/JJ	16gg\JJ
4F\	16A\LL	4cc\
.	16f\	.
.	16f\	.
.	16f\JJ	.
8r	16f\LL	8r
.	16g\	.
8BB-/	16f\	16dd\LL
.	16g\JJ	16dd\JJ
=159	=159	=159
4C/	16e\LL	16g\LL
.	16c\	16cc\
.	16e\	16cc\
.	16f\JJ	16cc\JJ
8r	16g\LL	16b-\LL
.	16g\	16cc\
8E\	16g\	16b-\
.	16g\JJ	16cc\JJ
4F\	16c\LL	[4a/
.	16f\	.
.	16e-\	.
.	16f\JJ	.
8r	[4d\	16a\LL]
.	.	16dd\
8E#\	.	16cc\
.	.	16dd\JJ
=160	=160	=160
4G\	16d\LL]	[4bn\
.	16g\	.
.	16f\	.
.	16g\JJ	.
8r	[4e\	16b\LL]
.	.	16ee\
8G#\	.	16dd\
.	.	16ee\JJ
4A\	16e\LL]	[4cc\
.	16a\	.
.	16g\	.
.	16a\JJ	.
8r	[4f\	16cc\LL]
.	.	16ff\
8A\	.	16ee-\
.	.	16ff\JJ
=161	=161	=161
8B-\L	16f\LL]	4.dd\
.	16e-\	.
8Bn\J	16d\	.
.	16f\JJ	.
4c\	16e-\LL	.
.	16d\	.
.	16e-\	[8cc\
.	16c\JJ	.
8d\L	8d/L	8cc\L]
*	*clefF4	*
8D\J	8D/	16b-\L
.	.	16a\JJ
8G/L	8G/	16b-\LL
.	.	16dd\
8GG/J	8GG/J	16cc\
.	.	16b-\JJ
=162	=162	=162
4D\	8D/L	16a\LL
.	.	16dd\
.	8DD/J	16dd\
.	.	16dd\JJ
8E\L	4r	16cc\LL
.	.	16dd\
8F#\J	.	16cc\
.	.	16dd\JJ
8G\L	16r	8bn/L
.	16G\LL	.
8E\	16G\	8g/
.	16G\JJ	.
8F#\	16F\LL	8a/
.	16G\	.
8D\J	16F\	8bn/J
.	16G\JJ	.
=163	=163	=163
8E\L	8E\L	16r
.	.	16cc\LL
8C\	8C\	16cc\
.	.	16cc\JJ
8D\	8D\	16b-\LL
.	.	16cc\
8E\J	8E\J	16b-\
.	.	16cc\JJ
8F/L	8r	16a/LL
.	.	16f/
8FF/J	16F\LL	16a/
.	16G\JJ	16b-/JJ
8r	8F\L	16cc\LL
.	.	16cc\
8C/	8C\J	16cc\
.	.	16cc\JJ
=164	=164	=164
8D/L	8r	16f/LL
.	.	16e/
8DD/J	16D\LL	16f/
.	16E-\JJ	16g/JJ
8r	8D/L	16f/LL
.	.	16g/
8AA/	8AA/J	16a/
.	.	16a/JJ
4BB-/	8r	8d/L
.	16BB-/LL	16dd/L
.	16AA/JJ	16cc/JJ
16r	16BB-/LL	16dd\LL
16D/LL	16D/	16ff\
16C/	16C/	16ee-\
16BB-/JJ	16BB-/JJ	16dd\JJ
=165	=165	=165
8.F\L	16F\	16cc/LL
*	*clefC3	*
.	16f\LL	16f/
.	16f\	16a/
16G\Jk	16f\JJ	16b-/JJ
8.A\L	16e-\LL	16cc\LL
.	16f\	16cc\
.	16e-\	16cc\
16A\Jk	16f\JJ	16cc\JJ
8B-\L	16d\LL	16f/LL
.	16B-\	16b-/
16BB-\L	16d\	16b-/
16C\JJ	16e-\JJ	16b-/JJ
8.D\L	16f\LL	16a-/LL
.	16f\	16b-/
.	16f\	16a-/
16D\Jk	16f\JJ	16b-/JJ
=166	=166	=166
4E-\	16B-\LL	[4g/
.	16e-\	.
.	16d\	.
.	16e-\JJ	.
8r	[4c\	16g\LL]
.	.	16cc\
8En\	.	16b-\
.	.	16cc\JJ
4F\	16c\LL]	[4a/
.	16f\	.
.	16e-\	.
.	16f\JJ	.
8r	[4d\	16a\LL]
.	.	16dd\
8F#\	.	16cc\
.	.	16dd\JJ
=167	=167	=167
4G\	16d\LL]	[4b-\
.	16g\	.
.	16f\	.
.	16g\JJ	.
8r	[4e\	16b-\LL]
.	.	16ee-\
8G\	.	16dd\
.	.	16ee-\JJ
4A\	16e\LL]	4cc\
.	16d\	.
.	16c\	.
.	16e-\JJ	.
[4B-\	8.d\L	16r
.	.	16f/LL
.	.	16b-/
.	16d\Jk	16a/JJ
=168	=168	=168
8B-\L]	8e\	8g/
8A\J	4f\	(32a\LLL
.	.	32b-\J
.	.	16cc\JJ)
[4G\	.	16b-/LL
.	.	16a/
.	16e\LL	16g/
.	16d\JJ	16f/JJ
8G\]	8c#\L	8e/L
4F\	8d\J	8f/
.	8Bn/L	8d/
8E\	8c#/J	8e/J
=169	=169	=169
8D\L	4d\	8f/L
8B-\	.	16d/L
.	.	16dd/JJ
8A\	8r	16cc\LL
.	.	16dd\
8G\J	8e\	16b-\
.	.	16cc\JJ
8F\L	8f\L	8a/L
8G\	16e\L	16g/L
.	16d\JJ	16f/JJ
8A\	8.d\L	8.e/L
8AA\J	.	.
.	16c#\Jk	16d/Jk
=170	=170	=170
4D\	4d\	8d\L
.	.	16ff\L
.	.	16gg\JJ
8d\L	4r	8ff\L
8A\J	.	8cc\J
8B-\L	2r	8r
8BB-\	.	16dd\LL
.	.	16ee-\JJ
8B-\	.	8dd\L
8F\J	.	8a\J
*	*clefF4	*
=171	=171	=171
8G\L	2r	8r
8GG\	.	16b-/LL
.	.	16a/JJ
8G\	.	16b-\LL
.	.	16dd\
8E\J	.	16cc\
.	.	16b-\JJ
8.F\L	8r	4a/
.	16F\LL	.
16E\Jk	16E\JJ	.
8D/L	16F\LL	4r
.	16A\	.
8BBn/J	16G\	.
.	16F\JJ	.
=172	=172	=172
4C/	8.D/L	8r
.	.	16g/LL
.	16C/Jk	16f/JJ
8r	8D/L	16g/LL
.	.	16b-/
8C/	8C/J	16a/
.	.	16g/JJ
8D/L	8r	8f\L
8DD/J	16D/LL	16ff\L
.	16C/JJ	16ee\JJ
8r	16D\LL	16ff\LL
.	16F\	16aa\
8GG/	16E\	16gg\
.	16D\JJ	16ff\JJ
=173	=173	=173
8C\L	8C/	16ee\LL
.	.	16dd\
*	*clefC3	*
8c\	16c/LL	16ee\
.	16Bn/JJ	16ff\JJ
8c\	16c\LL	16ee\LL
.	16e\	16gg\
8d\J	16d\	16ff\
.	16c\JJ	16ee\JJ
8.Bn\L	8.Bn/L	8dd\L
.	.	16dd\L
16A\k	16A/Jk	16cc\JJ
8Bn\	8Bn/L	16dd\LL
.	.	16ff\
8G\J	8G/J	16ee\
.	.	16dd\JJ
=174	=174	=174
8c\L	8r	16ee\LL
.	.	16cc\
8C\J	16c\LL	16ee\
.	16d\JJ	16ff\JJ
8r	8c/L	16gg\LL
.	.	16gg\
8G\	8G/J	16gg\
.	.	16gg\JJ
8A\L	8r	16cc\LL
.	.	16b-\
8AA\J	16A/LL	16cc\
.	16B-/JJ	16dd\JJ
8r	8A/L	16cc\LL
.	.	16dd\
8E\	8E/J	16ee\
.	.	16ee\JJ
=175	=175	=175
8F/L	8r	8a\L
8FF/J	16F/LL	16aa\L
.	16E/JJ	16gg\JJ
16r	16F/LL	16aa\LL
16A\LL	16A/	16ccc\
16G\	16G/	16bb-\
16F\JJ	16F/JJ	16aa\JJ
8c\L	8c\L	16gg\LL
.	.	16aa\
8d\	8d\	16ff\
.	.	16gg\JJ
8B-\	8B-\	8aa\L
8c\J	8c\J	(16gg\L
.	.	16ff\JJ)
=176	=176	=176
8F/L	16F/	8ff\L
*	*clefF4	*
.	16FF/LL	.
8FF/	16AA/	16cc\L
.	16BB-/JJ	16dd\JJ
8AA/	16C/LL	8cc/L
.	16C/	.
8C/J	16C/	8g/J
.	16C/JJ	.
8FF/	8FF\L	8r
8r	16F\L	16a/LL
.	16G\JJ	16b-/JJ
8F\L	8F\L	8a/L
8C\J	8C\J	8e/J
=177	=177	=177
8D/L	8r	8f\L
8DD/	16D\LL	16ff\L
.	16E-\JJ	16gg\JJ
8D/	8D/L	8ff\L
8AA/J	8AA/J	8cc\J
4BB-/	8BB-\L	8r
.	16B-\L	16dd\LL
.	16c\JJ	16ee-\JJ
8B-\L	8B-\L	8dd\L
8F\J	8F\J	8a\J
=178	=178	=178
8G\	8G\L	8b-\L
4c\	16c\L	16ee-\L
.	16d\JJ	16ff\JJ
.	8c\L	[4ee-\
8G\	8G\J	.
8A\L	8A\L	16ee-\LL]
.	.	16ff\
8B-\	8B-\	16dd\
.	.	16ee-\JJ
8E-\	8E-\	8dd\L
8F\J	8F\J	16cc\L
.	.	16b-\JJ
=179	=179	=179
8.BB-/L	4BB-/	8r
.	.	16b-/LL
16C/k	.	16a/JJ
*	*clefC3	*
8D/	16r	16b-\LL
.	16f\LL	16dd\
8E-/J	16e-\	16cc\
.	16d\JJ	16b-\JJ
8.F\L	8c\L	4a/
.	16f\L	.
16G\k	16en\JJ	.
8A\	16f\LL	16r
.	16a\	16cc\LL
8B-\J	16g\	16b-\
.	16f\JJ	16a\JJ
=180	=180	=180
8c\L	8e\	8g/L
8E\J	4g\	16cc/L
.	.	16b-/JJ
8F\L	.	8a\L
8A\J	[8f\	8cc\J
8B-\L	8f\L]	(16g/LL
.	.	16a/J
8G\J	8f\	8b-/J)
8c\L	8.f\	8.a/L
8C\J	.	.
.	16e\Jk	16g/Jk
=181	=181	=181
8.F\L	4f\	16a\LL
.	.	16f\
.	.	16ff\
16E\Jk	.	16gg\JJ
8D/L	4r	8ff\L
8AA/J	.	8cc\J
*	*clefF4	*
4BB-/	8r	8dd\L
.	16B-\LL	16dd\L
.	16A\JJ	16cc\JJ
16r	16B-\LL	16dd\LL
16d\LL	16d\	16ff\
16c\	16c\	16ee-\
16B-\JJ	16B-\JJ	16dd\JJ
=182	=182	=182
8A\L	16A\LL	16cc\LL
.	16A\	16cc\
8F\	16F\	16a\
.	16F\JJ	16a\JJ
8B-\	16B-\LL	16dd\LL
.	16B-\	16dd\
8G\J	16G\	16b-\
.	16G\JJ	16b-\JJ
8.c\L	8.c\L	8b-/L
.	.	16a/L
16BB-\Jk	16BB-\Jk	16g/JJ
4C/	4C/	8.g/L
.	.	16f/Jk
=183	=183	=183
4FF/	4FF/	4f/
4r	4r	4r
2r	2r	2r
==	==	==
*-	*-	*-
!!!ENC: Craig Stuart Sapp
!!!END: 2004/12/15/
